icons/ticket-plus.svg

<svg xmlns="http://www.w3.org/2000/svg" width="24" height="24" viewBox="0 0 24 24">
  <path d="M20,4 C21.5976809,4 22.9036609,5.24891996 22.9949073,6.82372721 L23,7 L23,10 L22,10 C20.8954305,10 20,10.8954305 20,12 C20,13.0543618 20.8158778,13.9181651 21.8507377,13.9945143 L22,14 L23,14 L23,17 C23,18.5976809 21.75108,19.9036609 20.1762728,19.9949073 L20,20 L4,20 C2.40231912,20 1.09633912,18.75108 1.00509269,17.1762728 L1,17 L1,14 L2,14 C3.1045695,14 4,13.1045695 4,12 C4,10.9456382 3.18412221,10.0818349 2.14926234,10.0054857 L2,10 L1,10 L1,7 C1,5.40231912 2.24891996,4.09633912 3.82372721,4.00509269 L4,4 L20,4 Z M12,8 C11.4477153,8 11,8.44771525 11,9 L11,9 L10.999,11 L9,11 L8.88337887,11.0067277 C8.38604019,11.0644928 8,11.4871642 8,12 C8,12.5522847 8.44771525,13 9,13 L9,13 L10.999,13 L11,15 L11.0067277,15.1166211 C11.0644928,15.6139598 11.4871642,16 12,16 C12.5522847,16 13,15.5522847 13,15 L13,15 L12.999,13 L15,13 L15.1166211,12.9932723 C15.6139598,12.9355072 16,12.5128358 16,12 C16,11.4477153 15.5522847,11 15,11 L15,11 L12.999,11 L13,9 L12.9932723,8.88337887 C12.9355072,8.38604019 12.5128358,8 12,8 Z"/>
</svg>

<svg xmlns="http://www.w3.org/2000/svg" viewBox="0 0 24 24">
  <path d="M20 4a3 3 0 0 1 3 2.82V10h-1a2 2 0 0 0-.15 4H23v3a3 3 0 0 1-2.82 3H4a3 3 0 0 1-3-2.82V14h1a2 2 0 0 0 .15-4H1V7a3 3 0 0 1 2.82-3H20zm-8 4a1 1 0 0 0-1 1v2H8.88A1 1 0 0 0 9 13h2v2.12a1 1 0 0 0 2-.12v-2h2.12a1 1 0 0 0-.12-2h-2V8.88A1 1 0 0 0 12 8z"/>
</svg>
